icons/bi.svg

<?xml version="1.0" ?>
<svg xmlns="http://www.w3.org/2000/svg" xmlns:ev="http://www.w3.org/2001/xml-events" xmlns:xlink="http://www.w3.org/1999/xlink" baseProfile="full" height="600px" version="1.1" viewBox="-91.47994529070274 -1028.5592857987015 10406.561891031373 12297.62808018559" width="508px">
	<defs/>
	<path d="M 7281.0,10158.0 C 7264.0,10112.0 7246.0,10067.0 7242.0,10058.0 C 7238.0,10049.0 7203.0,10012.0 7163.0,9976.0 C 7079.0,9901.0 7060.0,9896.0 6869.0,9902.0 C 6760.0,9905.0 6752.0,9907.0 6679.0,9944.0 L 6603.0,9982.0 L 6557.0,9962.0 C 6517.0,9944.0 6507.0,9934.0 6485.0,9885.0 C 6464.0,9837.0 6454.0,9826.0 6420.0,9813.0 C 6381.0,9798.0 6380.0,9795.0 6380.0,9751.0 C 6380.0,9669.0 6375.0,9662.0 6300.0,9640.0 C 6262.0,9629.0 6207.0,9615.0 6178.0,9609.0 C 6127.0,9599.0 6120.0,9600.0 6069.0,9625.0 C 6039.0,9640.0 5993.0,9674.0 5965.0,9699.0 C 5938.0,9725.0 5887.0,9766.0 5852.0,9790.0 C 5804.0,9824.0 5777.0,9853.0 5740.0,9912.0 C 5685.0,9998.0 5669.0,10009.0 5474.0,10090.0 C 5420.0,10112.0 5372.0,10134.0 5368.0,10138.0 C 5364.0,10142.0 5338.0,10143.0 5311.0,10142.0 L 5260.0,10138.0 L 5260.0,10077.0 C 5260.0,10025.0 5256.0,10012.0 5234.0,9989.0 L 5207.0,9961.0 L 5248.0,9878.0 C 5303.0,9767.0 5335.0,9609.0 5326.0,9495.0 C 5321.0,9418.0 5319.0,9414.0 5284.0,9385.0 C 5263.0,9369.0 5231.0,9351.0 5212.0,9345.0 C 5182.0,9336.0 5175.0,9327.0 5153.0,9270.0 C 5140.0,9234.0 5123.0,9175.0 5116.0,9139.0 C 5109.0,9102.0 5096.0,9062.0 5087.0,9050.0 C 5072.0,9029.0 5073.0,9024.0 5091.0,8989.0 C 5108.0,8954.0 5110.0,8929.0 5110.0,8688.0 L 5110.0,8425.0 L 5079.0,8348.0 C 5050.0,8276.0 5044.0,8269.0 4992.0,8238.0 C 4939.0,8206.0 4935.0,8201.0 4917.0,8140.0 C 4906.0,8104.0 4894.0,8072.0 4889.0,8069.0 C 4884.0,8066.0 4851.0,8058.0 4816.0,8051.0 C 4778.0,8043.0 4744.0,8030.0 4734.0,8019.0 C 4724.0,8008.0 4704.0,8000.0 4683.0,8000.0 C 4657.0,8000.0 4650.0,7996.0 4650.0,7980.0 C 4650.0,7963.0 4643.0,7960.0 4611.0,7960.0 C 4577.0,7960.0 4571.0,7964.0 4560.0,7990.0 C 4553.0,8007.0 4538.0,8025.0 4528.0,8031.0 C 4496.0,8048.0 4411.0,8032.0 4382.0,8003.0 C 4369.0,7990.0 4341.0,7972.0 4319.0,7963.0 C 4283.0,7949.0 4280.0,7945.0 4280.0,7911.0 C 4280.0,7860.0 4265.0,7844.0 4200.0,7826.0 C 4121.0,7804.0 4090.0,7804.0 4045.0,7827.0 C 4023.0,7838.0 3972.0,7857.0 3932.0,7869.0 L 3860.0,7891.0 L 3779.0,7865.0 C 3720.0,7847.0 3677.0,7840.0 3616.0,7840.0 C 3488.0,7840.0 3421.0,7824.0 3380.0,7785.0 C 3306.0,7715.0 3246.0,7704.0 3177.0,7747.0 C 3154.0,7761.0 3102.0,7788.0 3062.0,7807.0 C 2972.0,7848.0 2920.0,7849.0 2781.0,7816.0 C 2726.0,7803.0 2657.0,7789.0 2626.0,7785.0 L 2571.0,7778.0 L 2560.0,7729.0 C 2550.0,7687.0 2544.0,7680.0 2524.0,7680.0 C 2488.0,7680.0 2460.0,7743.0 2460.0,7824.0 C 2460.0,7872.0 2453.0,7905.0 2435.0,7946.0 C 2406.0,8011.0 2403.0,8080.0 2425.0,8133.0 C 2446.0,8185.0 2444.0,8193.0 2404.0,8215.0 L 2368.0,8234.0 L 2401.0,8260.0 L 2433.0,8287.0 L 2391.0,8304.0 C 2334.0,8326.0 2308.0,8383.0 2311.0,8478.0 L 2314.0,8545.0 L 2277.0,8548.0 C 2244.0,8551.0 2236.0,8558.0 2206.0,8604.0 C 2188.0,8633.0 2154.0,8671.0 2131.0,8689.0 L 2089.0,8723.0 L 2007.0,8701.0 C 1901.0,8673.0 1859.0,8674.0 1812.0,8704.0 C 1776.0,8728.0 1625.0,8780.0 1593.0,8780.0 C 1585.0,8780.0 1562.0,8794.0 1543.0,8810.0 C 1501.0,8847.0 1438.0,8852.0 1418.0,8820.0 C 1398.0,8788.0 1339.0,8793.0 1312.0,8829.0 C 1299.0,8847.0 1279.0,8859.0 1258.0,8863.0 C 1226.0,8868.0 1204.0,8857.0 1014.0,8744.0 C 1002.0,8737.0 988.0,8713.0 982.0,8690.0 C 971.0,8645.0 965.0,8652.0 1047.0,8620.0 L 1073.0,8609.0 L 1034.0,8583.0 C 1013.0,8569.0 991.0,8554.0 987.0,8550.0 C 983.0,8546.0 986.0,8501.0 995.0,8449.0 C 1003.0,8397.0 1010.0,8341.0 1010.0,8323.0 C 1010.0,8289.0 946.0,8172.0 922.0,8163.0 C 912.0,8159.0 910.0,8146.0 915.0,8109.0 C 921.0,8067.0 919.0,8059.0 903.0,8053.0 C 893.0,8050.0 861.0,8028.0 833.0,8006.0 L 780.0,7965.0 L 780.0,7907.0 C 780.0,7806.0 844.0,7751.0 962.0,7750.0 C 1017.0,7750.0 1020.0,7749.0 1025.0,7723.0 C 1028.0,7707.0 1037.0,7684.0 1045.0,7670.0 C 1053.0,7656.0 1069.0,7626.0 1080.0,7604.0 C 1100.0,7562.0 1116.0,7550.0 1149.0,7550.0 C 1179.0,7550.0 1200.0,7476.0 1190.0,7410.0 C 1185.0,7380.0 1181.0,7339.0 1181.0,7319.0 L 1180.0,7283.0 L 1267.0,7263.0 C 1350.0,7245.0 1354.0,7242.0 1362.0,7212.0 C 1370.0,7182.0 1374.0,7180.0 1413.0,7180.0 C 1438.0,7180.0 1471.0,7171.0 1495.0,7157.0 C 1531.0,7136.0 1535.0,7130.0 1535.0,7095.0 C 1535.0,7073.0 1531.0,7031.0 1528.0,7001.0 L 1521.0,6947.0 L 1563.0,6953.0 C 1605.0,6959.0 1605.0,6958.0 1649.0,6900.0 C 1712.0,6817.0 1740.0,6798.0 1789.0,6806.0 C 1828.0,6812.0 1829.0,6812.0 1845.0,6772.0 C 1856.0,6746.0 1873.0,6726.0 1895.0,6714.0 C 1924.0,6698.0 1930.0,6689.0 1935.0,6650.0 C 1939.0,6625.0 1948.0,6589.0 1956.0,6569.0 C 1966.0,6545.0 1969.0,6521.0 1965.0,6496.0 C 1959.0,6468.0 1962.0,6455.0 1974.0,6441.0 C 1990.0,6423.0 1988.0,6417.0 1946.0,6336.0 C 1921.0,6288.0 1885.0,6229.0 1865.0,6203.0 C 1838.0,6167.0 1830.0,6148.0 1830.0,6115.0 C 1830.0,6092.0 1823.0,6052.0 1813.0,6025.0 L 1797.0,5976.0 L 1831.0,5948.0 L 1865.0,5919.0 L 1838.0,5870.0 L 1811.0,5822.0 L 1836.0,5729.0 L 1860.0,5637.0 L 1840.0,5615.0 C 1829.0,5604.0 1815.0,5580.0 1809.0,5562.0 C 1799.0,5533.0 1794.0,5530.0 1759.0,5530.0 C 1714.0,5530.0 1716.0,5542.0 1731.0,5381.0 C 1746.0,5215.0 1745.0,5220.0 1784.0,5220.0 C 1802.0,5220.0 1864.0,5208.0 1921.0,5194.0 L 2024.0,5168.0 L 2062.0,5209.0 L 2101.0,5250.0 L 2193.0,5250.0 L 2286.0,5250.0 L 2328.0,5193.0 C 2372.0,5133.0 2376.0,5120.0 2360.0,5090.0 C 2353.0,5078.0 2354.0,5054.0 2361.0,5018.0 C 2378.0,4932.0 2373.0,4782.0 2351.0,4746.0 C 2335.0,4719.0 2333.0,4694.0 2335.0,4540.0 C 2337.0,4377.0 2339.0,4360.0 2365.0,4290.0 L 2393.0,4215.0 L 2366.0,4135.0 C 2348.0,4078.0 2340.0,4032.0 2340.0,3983.0 C 2340.0,3928.0 2333.0,3894.0 2310.0,3834.0 C 2294.0,3792.0 2274.0,3750.0 2265.0,3740.0 C 2257.0,3731.0 2238.0,3690.0 2224.0,3649.0 C 2202.0,3584.0 2200.0,3565.0 2206.0,3493.0 C 2212.0,3418.0 2216.0,3406.0 2250.0,3360.0 C 2271.0,3332.0 2291.0,3293.0 2295.0,3273.0 C 2298.0,3253.0 2326.0,3188.0 2356.0,3128.0 C 2399.0,3042.0 2410.0,3011.0 2410.0,2973.0 C 2409.0,2927.0 2412.0,2923.0 2465.0,2875.0 C 2519.0,2827.0 2521.0,2822.0 2531.0,2755.0 C 2541.0,2693.0 2547.0,2681.0 2579.0,2650.0 C 2623.0,2609.0 2630.0,2582.0 2639.0,2430.0 L 2645.0,2325.0 L 2708.0,2310.0 C 2743.0,2302.0 2771.0,2291.0 2771.0,2285.0 C 2771.0,2280.0 2766.0,2256.0 2760.0,2234.0 C 2749.0,2196.0 2751.0,2187.0 2783.0,2119.0 C 2801.0,2078.0 2835.0,2023.0 2857.0,1997.0 C 2889.0,1958.0 2900.0,1935.0 2910.0,1879.0 C 2923.0,1813.0 2926.0,1807.0 2969.0,1775.0 C 2994.0,1757.0 3034.0,1722.0 3058.0,1697.0 C 3116.0,1638.0 3134.0,1565.0 3126.0,1428.0 L 3120.0,1332.0 L 3193.0,1293.0 L 3265.0,1253.0 L 3266.0,1204.0 C 3267.0,1119.0 3280.0,1063.0 3325.0,956.0 C 3353.0,888.0 3373.0,822.0 3381.0,768.0 C 3388.0,723.0 3407.0,643.0 3424.0,590.0 L 3455.0,495.0 L 3607.0,420.0 L 3758.0,345.0 L 3779.0,269.0 C 3791.0,225.0 3800.0,163.0 3800.0,122.0 C 3800.0,38.0 3798.0,39.0 3929.0,40.0 C 4003.0,41.0 4039.0,37.0 4084.0,21.0 C 4150.0,-2.0 4232.0,-7.0 4247.0,13.0 C 4253.0,19.0 4260.0,43.0 4264.0,65.0 C 4275.0,130.0 4280.0,140.0 4301.0,140.0 C 4311.0,140.0 4348.0,151.0 4383.0,165.0 L 4447.0,191.0 L 4484.0,283.0 C 4504.0,334.0 4533.0,390.0 4548.0,408.0 L 4576.0,441.0 L 4603.0,416.0 C 4618.0,402.0 4630.0,382.0 4630.0,372.0 C 4630.0,344.0 4647.0,334.0 4712.0,323.0 C 4768.0,313.0 4770.0,314.0 4800.0,345.0 C 4820.0,366.0 4830.0,386.0 4830.0,407.0 C 4830.0,452.0 4877.0,486.0 4955.0,495.0 C 5019.0,503.0 5093.0,535.0 5124.0,569.0 C 5134.0,580.0 5157.0,594.0 5175.0,600.0 C 5193.0,606.0 5220.0,629.0 5240.0,655.0 C 5271.0,697.0 5276.0,699.0 5329.0,702.0 L 5384.0,705.0 L 5395.0,750.0 C 5405.0,791.0 5409.0,795.0 5439.0,798.0 C 5472.0,801.0 5556.0,846.0 5597.0,883.0 C 5611.0,895.0 5630.0,938.0 5646.0,989.0 C 5713.0,1209.0 5866.0,1424.0 5989.0,1470.0 C 6038.0,1488.0 6050.0,1498.0 6084.0,1551.0 C 6114.0,1598.0 6134.0,1617.0 6167.0,1631.0 C 6197.0,1644.0 6210.0,1655.0 6210.0,1669.0 C 6210.0,1680.0 6226.0,1702.0 6245.0,1717.0 C 6274.0,1740.0 6280.0,1751.0 6280.0,1784.0 C 6280.0,1810.0 6291.0,1840.0 6315.0,1880.0 C 6343.0,1926.0 6357.0,1939.0 6389.0,1948.0 C 6417.0,1957.0 6430.0,1967.0 6434.0,1985.0 C 6438.0,1999.0 6456.0,2020.0 6475.0,2033.0 C 6506.0,2052.0 6510.0,2060.0 6510.0,2098.0 C 6510.0,2121.0 6506.0,2140.0 6502.0,2140.0 C 6488.0,2140.0 6450.0,2180.0 6450.0,2196.0 C 6450.0,2204.0 6461.0,2215.0 6475.0,2220.0 C 6496.0,2228.0 6499.0,2234.0 6494.0,2259.0 C 6489.0,2284.0 6496.0,2302.0 6533.0,2357.0 C 6559.0,2395.0 6600.0,2474.0 6626.0,2535.0 C 6652.0,2597.0 6682.0,2651.0 6694.0,2659.0 C 6705.0,2667.0 6754.0,2712.0 6803.0,2759.0 C 6890.0,2843.0 6890.0,2844.0 6890.0,2894.0 C 6890.0,2934.0 6897.0,2955.0 6920.0,2990.0 C 6936.0,3015.0 6955.0,3061.0 6961.0,3092.0 L 6972.0,3149.0 L 7049.0,3175.0 C 7093.0,3189.0 7148.0,3200.0 7179.0,3200.0 C 7226.0,3200.0 7239.0,3195.0 7276.0,3165.0 C 7319.0,3130.0 7320.0,3129.0 7346.0,3147.0 L 7373.0,3164.0 L 7366.0,3268.0 C 7360.0,3374.0 7354.0,3395.0 7314.0,3443.0 C 7281.0,3483.0 7281.0,3543.0 7314.0,3558.0 C 7332.0,3566.0 7339.0,3579.0 7344.0,3615.0 C 7348.0,3640.0 7362.0,3684.0 7376.0,3713.0 C 7389.0,3742.0 7400.0,3775.0 7400.0,3788.0 C 7400.0,3804.0 7413.0,3818.0 7444.0,3837.0 C 7487.0,3863.0 7500.0,3883.0 7500.0,3925.0 C 7500.0,3937.0 7518.0,3964.0 7541.0,3985.0 L 7582.0,4025.0 L 7578.0,4111.0 L 7575.0,4198.0 L 7630.0,4256.0 C 7661.0,4289.0 7693.0,4325.0 7701.0,4337.0 C 7715.0,4358.0 7718.0,4358.0 7775.0,4344.0 C 7857.0,4325.0 7856.0,4325.0 7870.0,4374.0 C 7878.0,4403.0 7897.0,4432.0 7928.0,4463.0 C 7970.0,4503.0 7985.0,4510.0 8067.0,4530.0 C 8159.0,4552.0 8159.0,4552.0 8191.0,4601.0 L 8222.0,4650.0 L 8280.0,4650.0 L 8337.0,4650.0 L 8409.0,4731.0 C 8517.0,4853.0 8555.0,4909.0 8579.0,4979.0 C 8590.0,5015.0 8600.0,5049.0 8600.0,5056.0 C 8600.0,5067.0 8494.0,5120.0 8472.0,5120.0 C 8457.0,5120.0 8440.0,5153.0 8440.0,5182.0 C 8440.0,5198.0 8451.0,5211.0 8478.0,5227.0 C 8512.0,5246.0 8518.0,5255.0 8529.0,5307.0 C 8536.0,5339.0 8551.0,5379.0 8561.0,5396.0 C 8579.0,5425.0 8585.0,5428.0 8671.0,5440.0 C 8753.0,5451.0 8766.0,5456.0 8800.0,5487.0 C 8833.0,5516.0 8840.0,5529.0 8846.0,5576.0 C 8851.0,5623.0 8857.0,5633.0 8881.0,5645.0 C 8896.0,5653.0 8913.0,5660.0 8917.0,5660.0 C 8922.0,5660.0 8938.0,5635.0 8953.0,5605.0 C 8979.0,5551.0 8981.0,5550.0 9022.0,5550.0 C 9056.0,5550.0 9073.0,5557.0 9109.0,5588.0 C 9147.0,5619.0 9168.0,5628.0 9230.0,5638.0 C 9273.0,5645.0 9312.0,5658.0 9322.0,5668.0 C 9338.0,5684.0 9338.0,5689.0 9323.0,5747.0 C 9302.0,5834.0 9310.0,5875.0 9354.0,5890.0 C 9394.0,5903.0 9400.0,5923.0 9400.0,6046.0 C 9400.0,6123.0 9397.0,6134.0 9368.0,6182.0 C 9339.0,6229.0 9335.0,6244.0 9334.0,6310.0 C 9333.0,6440.0 9332.0,6441.0 9292.0,6479.0 C 9239.0,6529.0 9190.0,6604.0 9190.0,6633.0 C 9190.0,6651.0 9210.0,6678.0 9255.0,6723.0 C 9291.0,6759.0 9320.0,6795.0 9320.0,6804.0 C 9320.0,6813.0 9337.0,6839.0 9358.0,6863.0 C 9409.0,6918.0 9461.0,7006.0 9438.0,6997.0 C 9429.0,6994.0 9382.0,6988.0 9333.0,6984.0 C 9271.0,6980.0 9232.0,6971.0 9200.0,6954.0 C 9105.0,6906.0 8867.0,6924.0 8782.0,6987.0 C 8755.0,7008.0 8743.0,7010.0 8704.0,7004.0 C 8665.0,6998.0 8656.0,6993.0 8642.0,6963.0 C 8628.0,6933.0 8623.0,6930.0 8595.0,6936.0 C 8568.0,6941.0 8511.0,6993.0 8510.0,7013.0 C 8510.0,7018.0 8493.0,7060.0 8473.0,7107.0 C 8439.0,7187.0 8434.0,7194.0 8390.0,7214.0 C 8302.0,7255.0 8242.0,7300.0 8209.0,7351.0 C 8179.0,7399.0 8176.0,7400.0 8141.0,7394.0 C 8121.0,7390.0 8091.0,7374.0 8073.0,7357.0 C 8046.0,7332.0 8040.0,7318.0 8040.0,7285.0 L 8040.0,7244.0 L 7983.0,7226.0 C 7944.0,7214.0 7909.0,7193.0 7878.0,7164.0 C 7813.0,7104.0 7785.0,7104.0 7745.0,7167.0 C 7689.0,7256.0 7621.0,7330.0 7596.0,7330.0 C 7578.0,7330.0 7569.0,7338.0 7561.0,7362.0 C 7554.0,7380.0 7531.0,7414.0 7508.0,7437.0 C 7475.0,7470.0 7458.0,7480.0 7433.0,7480.0 C 7415.0,7480.0 7400.0,7481.0 7400.0,7483.0 C 7400.0,7485.0 7389.0,7513.0 7376.0,7547.0 L 7353.0,7607.0 L 7396.0,7641.0 C 7432.0,7669.0 7439.0,7681.0 7440.0,7710.0 C 7440.0,7739.0 7449.0,7755.0 7489.0,7794.0 C 7557.0,7861.0 7566.0,7895.0 7542.0,7995.0 L 7523.0,8075.0 L 7558.0,8118.0 C 7577.0,8142.0 7602.0,8166.0 7612.0,8171.0 C 7627.0,8179.0 7629.0,8188.0 7625.0,8214.0 L 7618.0,8247.0 L 7685.0,8253.0 C 7759.0,8258.0 7795.0,8278.0 7820.0,8326.0 C 7841.0,8366.0 7848.0,8370.0 7902.0,8370.0 C 7947.0,8370.0 7950.0,8372.0 7958.0,8403.0 C 7965.0,8427.0 7962.0,8447.0 7948.0,8485.0 C 7937.0,8513.0 7927.0,8536.0 7926.0,8537.0 C 7925.0,8539.0 7897.0,8535.0 7864.0,8530.0 C 7827.0,8524.0 7801.0,8514.0 7795.0,8504.0 C 7776.0,8471.0 7750.0,8450.0 7730.0,8450.0 C 7719.0,8450.0 7691.0,8438.0 7669.0,8423.0 C 7632.0,8398.0 7627.0,8398.0 7619.0,8413.0 C 7612.0,8425.0 7596.0,8430.0 7561.0,8430.0 L 7513.0,8430.0 L 7491.0,8486.0 C 7462.0,8563.0 7464.0,8583.0 7508.0,8643.0 C 7530.0,8672.0 7557.0,8724.0 7569.0,8760.0 C 7581.0,8796.0 7611.0,8852.0 7635.0,8884.0 C 7685.0,8950.0 7685.0,8949.0 7666.0,9037.0 L 7653.0,9100.0 L 7697.0,9127.0 C 7761.0,9168.0 7851.0,9326.0 7862.0,9419.0 C 7869.0,9477.0 7874.0,9488.0 7904.0,9515.0 C 7960.0,9563.0 7980.0,9606.0 7980.0,9675.0 C 7980.0,9743.0 7969.0,9760.0 7903.0,9807.0 C 7880.0,9824.0 7821.0,9875.0 7772.0,9921.0 C 7684.0,10004.0 7683.0,10006.0 7675.0,10064.0 C 7666.0,10142.0 7656.0,10167.0 7630.0,10175.0 C 7615.0,10180.0 7601.0,10175.0 7586.0,10161.0 C 7548.0,10125.0 7499.0,10133.0 7405.0,10190.0 C 7359.0,10218.0 7320.0,10240.0 7318.0,10240.0 C 7315.0,10240.0 7299.0,10203.0 7281.0,10158.0" fill="pink"/>
</svg>

<?xml version="1.0" standalone="no"?>
<!DOCTYPE svg PUBLIC "-//W3C//DTD SVG 20010904//EN"
 "http://www.w3.org/TR/2001/REC-SVG-20010904/DTD/svg10.dtd">
<svg version="1.0" xmlns="http://www.w3.org/2000/svg"
 width="1024.000000pt" height="1024.000000pt" viewBox="0 0 1024.000000 1024.000000"
 preserveAspectRatio="xMidYMid meet">
<metadata>
Created by potrace 1.10, written by Peter Selinger 2001-2011
</metadata>
<g transform="translate(0.000000,1024.000000) scale(0.100000,-0.100000)"
fill="#000000" stroke="none">
<path d="M7281 10158 c-17 -46 -35 -91 -39 -100 -4 -9 -39 -46 -79 -82 -84
-75 -103 -80 -294 -74 -109 3 -117 5 -190 42 l-76 38 -46 -20 c-40 -18 -50
-28 -72 -77 -21 -48 -31 -59 -65 -72 -39 -15 -40 -18 -40 -62 0 -82 -5 -89
-80 -111 -38 -11 -93 -25 -122 -31 -51 -10 -58 -9 -109 16 -30 15 -76 49 -104
74 -27 26 -78 67 -113 91 -48 34 -75 63 -112 122 -55 86 -71 97 -266 178 -54
22 -102 44 -106 48 -4 4 -30 5 -57 4 l-51 -4 0 -61 c0 -52 -4 -65 -26 -88
l-27 -28 41 -83 c55 -111 87 -269 78 -383 -5 -77 -7 -81 -42 -110 -21 -16 -53
-34 -72 -40 -30 -9 -37 -18 -59 -75 -13 -36 -30 -95 -37 -131 -7 -37 -20 -77
-29 -89 -15 -21 -14 -26 4 -61 17 -35 19 -60 19 -301 l0 -263 -31 -77 c-29
-72 -35 -79 -87 -110 -53 -32 -57 -37 -75 -98 -11 -36 -23 -68 -28 -71 -5 -3
-38 -11 -73 -18 -38 -8 -72 -21 -82 -32 -10 -11 -30 -19 -51 -19 -26 0 -33 -4
-33 -20 0 -17 -7 -20 -39 -20 -34 0 -40 4 -51 30 -7 17 -22 35 -32 41 -32 17
-117 1 -146 -28 -13 -13 -41 -31 -63 -40 -36 -14 -39 -18 -39 -52 0 -51 -15
-67 -80 -85 -79 -22 -110 -22 -155 1 -22 11 -73 30 -113 42 l-72 22 -81 -26
c-59 -18 -102 -25 -163 -25 -128 0 -195 -16 -236 -55 -74 -70 -134 -81 -203
-38 -23 14 -75 41 -115 60 -90 41 -142 42 -281 9 -55 -13 -124 -27 -155 -31
l-55 -7 -11 -49 c-10 -42 -16 -49 -36 -49 -36 0 -64 63 -64 144 0 48 -7 81
-25 122 -29 65 -32 134 -10 187 21 52 19 60 -21 82 l-36 19 33 26 32 27 -42
17 c-57 22 -83 79 -80 174 l3 67 -37 3 c-33 3 -41 10 -71 56 -18 29 -52 67
-75 85 l-42 34 -82 -22 c-106 -28 -148 -27 -195 3 -36 24 -187 76 -219 76 -8
0 -31 14 -50 30 -42 37 -105 42 -125 10 -20 -32 -79 -27 -106 9 -13 18 -33 30
-54 34 -32 5 -54 -6 -244 -119 -12 -7 -26 -31 -32 -54 -11 -45 -17 -38 65 -70
l26 -11 -39 -26 c-21 -14 -43 -29 -47 -33 -4 -4 -1 -49 8 -101 8 -52 15 -108
15 -126 0 -34 -64 -151 -88 -160 -10 -4 -12 -17 -7 -54 6 -42 4 -50 -12 -56
-10 -3 -42 -25 -70 -47 l-53 -41 0 -58 c0 -101 64 -156 182 -157 55 0 58 -1
63 -27 3 -16 12 -39 20 -53 8 -14 24 -44 35 -66 20 -42 36 -54 69 -54 30 0 51
-74 41 -140 -5 -30 -9 -71 -9 -91 l-1 -36 87 -20 c83 -18 87 -21 95 -51 8 -30
12 -32 51 -32 25 0 58 -9 82 -23 36 -21 40 -27 40 -62 0 -22 -4 -64 -7 -94
l-7 -54 42 6 c42 6 42 5 86 -53 63 -83 91 -102 140 -94 39 6 40 6 56 -34 11
-26 28 -46 50 -58 29 -16 35 -25 40 -64 4 -25 13 -61 21 -81 10 -24 13 -48 9
-73 -6 -28 -3 -41 9 -55 16 -18 14 -24 -28 -105 -25 -48 -61 -107 -81 -133
-27 -36 -35 -55 -35 -88 0 -23 -7 -63 -17 -90 l-16 -49 34 -28 34 -29 -27 -49
-27 -48 25 -93 24 -92 -20 -22 c-11 -11 -25 -35 -31 -53 -10 -29 -15 -32 -50
-32 -45 0 -43 12 -28 -149 15 -166 14 -161 53 -161 18 0 80 -12 137 -26 l103
-26 38 41 39 41 92 0 93 0 42 -57 c44 -60 48 -73 32 -103 -7 -12 -6 -36 1 -72
17 -86 12 -236 -10 -272 -16 -27 -18 -52 -16 -206 2 -163 4 -180 30 -250 l28
-75 -27 -80 c-18 -57 -26 -103 -26 -152 0 -55 -7 -89 -30 -149 -16 -42 -36
-84 -45 -94 -8 -9 -27 -50 -41 -91 -22 -65 -24 -84 -18 -156 6 -75 10 -87 44
-133 21 -28 41 -67 45 -87 3 -20 31 -85 61 -145 43 -86 54 -117 54 -155 -1
-46 2 -50 55 -98 54 -48 56 -53 66 -120 10 -62 16 -74 48 -105 44 -41 51 -68
60 -220 l6 -105 63 -15 c35 -8 63 -19 63 -25 0 -5 -5 -29 -11 -51 -11 -38 -9
-47 23 -115 18 -41 52 -96 74 -122 32 -39 43 -62 53 -118 13 -66 16 -72 59
-104 25 -18 65 -53 89 -78 58 -59 76 -132 68 -269 l-6 -96 73 -39 72 -40 1
-49 c1 -85 14 -141 59 -248 28 -68 48 -134 56 -188 7 -45 26 -125 43 -178 l31
-95 152 -75 151 -75 21 -76 c12 -44 21 -106 21 -147 0 -84 -2 -83 129 -82 74
1 110 -3 155 -19 66 -23 148 -28 163 -8 6 6 13 30 17 52 11 65 16 75 37 75 10
0 47 11 82 25 l64 26 37 92 c20 51 49 107 64 125 l28 33 27 -25 c15 -14 27
-34 27 -44 0 -28 17 -38 82 -49 56 -10 58 -9 88 22 20 21 30 41 30 62 0 45 47
79 125 88 64 8 138 40 169 74 10 11 33 25 51 31 18 6 45 29 65 55 31 42 36 44
89 47 l55 3 11 45 c10 41 14 45 44 48 33 3 117 48 158 85 14 12 33 55 49 106
67 220 220 435 343 481 49 18 61 28 95 81 30 47 50 66 83 80 30 13 43 24 43
38 0 11 16 33 35 48 29 23 35 34 35 67 0 26 11 56 35 96 28 46 42 59 74 68 28
9 41 19 45 37 4 14 22 35 41 48 31 19 35 27 35 65 0 23 -4 42 -8 42 -14 0 -52
40 -52 56 0 8 11 19 25 24 21 8 24 14 19 39 -5 25 2 43 39 98 26 38 67 117 93
178 26 62 56 116 68 124 11 8 60 53 109 100 87 84 87 85 87 135 0 40 7 61 30
96 16 25 35 71 41 102 l11 57 77 26 c44 14 99 25 130 25 47 0 60 -5 97 -35 43
-35 44 -36 70 -18 l27 17 -7 104 c-6 106 -12 127 -52 175 -33 40 -33 100 0
115 18 8 25 21 30 57 4 25 18 69 32 98 13 29 24 62 24 75 0 16 13 30 44 49 43
26 56 46 56 88 0 12 18 39 41 60 l41 40 -4 86 -3 87 55 58 c31 33 63 69 71 81
14 21 17 21 74 7 82 -19 81 -19 95 30 8 29 27 58 58 89 42 40 57 47 139 67 92
22 92 22 124 71 l31 49 58 0 57 0 72 81 c108 122 146 178 170 248 11 36 21 70
21 77 0 11 -106 64 -128 64 -15 0 -32 33 -32 62 0 16 11 29 38 45 34 19 40 28
51 80 7 32 22 72 32 89 18 29 24 32 110 44 82 11 95 16 129 47 33 29 40 42 46
89 5 47 11 57 35 69 15 8 32 15 36 15 5 0 21 -25 36 -55 26 -54 28 -55 69 -55
34 0 51 7 87 38 38 31 59 40 121 50 43 7 82 20 92 30 16 16 16 21 1 79 -21 87
-13 128 31 143 40 13 46 33 46 156 0 77 -3 88 -32 136 -29 47 -33 62 -34 128
-1 130 -2 131 -42 169 -53 50 -102 125 -102 154 0 18 20 45 65 90 36 36 65 72
65 81 0 9 17 35 38 59 51 55 103 143 80 134 -9 -3 -56 -9 -105 -13 -62 -4
-101 -13 -133 -30 -95 -48 -333 -30 -418 33 -27 21 -39 23 -78 17 -39 -6 -48
-11 -62 -41 -14 -30 -19 -33 -47 -27 -27 5 -84 57 -85 77 0 5 -17 47 -37 94
-34 80 -39 87 -83 107 -88 41 -148 86 -181 137 -30 48 -33 49 -68 43 -20 -4
-50 -20 -68 -37 -27 -25 -33 -39 -33 -72 l0 -41 -57 -18 c-39 -12 -74 -33
-105 -62 -65 -60 -93 -60 -133 3 -56 89 -124 163 -149 163 -18 0 -27 8 -35 32
-7 18 -30 52 -53 75 -33 33 -50 43 -75 43 -18 0 -33 1 -33 3 0 2 -11 30 -24
64 l-23 60 43 34 c36 28 43 40 44 69 0 29 9 45 49 84 68 67 77 101 53 201
l-19 80 35 43 c19 24 44 48 54 53 15 8 17 17 13 43 l-7 33 67 6 c74 5 110 25
135 73 21 40 28 44 82 44 45 0 48 2 56 33 7 24 4 44 -10 82 -11 28 -21 51 -22
52 -1 2 -29 -2 -62 -7 -37 -6 -63 -16 -69 -26 -19 -33 -45 -54 -65 -54 -11 0
-39 -12 -61 -27 -37 -25 -42 -25 -50 -10 -7 12 -23 17 -58 17 l-48 0 -22 56
c-29 77 -27 97 17 157 22 29 49 81 61 117 12 36 42 92 66 124 50 66 50 65 31
153 l-13 63 44 27 c64 41 154 199 165 292 7 58 12 69 42 96 56 48 76 91 76
160 0 68 -11 85 -77 132 -23 17 -82 68 -131 114 -88 83 -89 85 -97 143 -9 78
-19 103 -45 111 -15 5 -29 0 -44 -14 -38 -36 -87 -28 -181 29 -46 28 -85 50
-87 50 -3 0 -19 -37 -37 -82z"/>
</g>
</svg>
